packages/tokens/icons/integrity2/size32Px.svg

<svg viewBox="0 0 32 32" fill="none" xmlns="http://www.w3.org/2000/svg" width="1em" height="1em"><path d="M11 27.5H21M16 9.5V27.5" stroke="currentColor" stroke-linecap="round"/><path d="M29.4111 13.8948C28.9965 15.9515 27.1785 17.5 25 17.5C22.8215 17.5 21.0035 15.9515 20.5889 13.8948C20.569 13.7965 20.5968 13.7095 20.6656 13.6363C20.7391 13.5581 20.8589 13.5 21 13.5H29C29.1411 13.5 29.2609 13.5581 29.3344 13.6363C29.4032 13.7095 29.431 13.7965 29.4111 13.8948Z" stroke="currentColor" stroke-linejoin="round"/><path d="M25 6L25.4531 5.78856C25.3709 5.61252 25.1943 5.5 25 5.5C24.8057 5.5 24.6291 5.61252 24.5469 5.78856L25 6ZM28.0469 13.7114C28.1637 13.9617 28.4612 14.0699 28.7114 13.9531C28.9617 13.8363 29.0699 13.5388 28.9531 13.2886L28.0469 13.7114ZM21.9531 13.7114L25.4531 6.21144L24.5469 5.78856L21.0469 13.2886L21.9531 13.7114ZM24.5469 6.21144L28.0469 13.7114L28.9531 13.2886L25.4531 5.78856L24.5469 6.21144Z" fill="currentColor"/><path d="M11.4111 18.8948C10.9965 20.9515 9.17851 22.5 7 22.5C4.82149 22.5 3.00354 20.9515 2.58886 18.8948C2.56905 18.7965 2.59679 18.7095 2.66559 18.6363C2.73906 18.5581 2.85892 18.5 3 18.5H11C11.1411 18.5 11.2609 18.5581 11.3344 18.6363C11.4032 18.7095 11.431 18.7965 11.4111 18.8948Z" stroke="currentColor" stroke-linejoin="round"/><path d="M7 11L7.45309 10.7886C7.37094 10.6125 7.19426 10.5 7 10.5C6.80574 10.5 6.62906 10.6125 6.54691 10.7886L7 11ZM10.0469 18.7114C10.1637 18.9617 10.4612 19.0699 10.7114 18.9531C10.9617 18.8363 11.0699 18.5388 10.9531 18.2886L10.0469 18.7114ZM3.95309 18.7114L7.45309 11.2114L6.54691 10.7886L3.04691 18.2886L3.95309 18.7114ZM6.54691 11.2114L10.0469 18.7114L10.9531 18.2886L7.45309 10.7886L6.54691 11.2114Z" fill="currentColor"/><circle cx="16" cy="8" r="1.5" stroke="currentColor"/><path d="M17.9332 7.72814L29.08 4.74138M3 11.7295L14.5525 8.63401" stroke="currentColor" stroke-linecap="round"/></svg>

<svg xmlns="http://www.w3.org/2000/svg" fill="none" viewBox="0 0 32 32" width="1em" height="1em"><path stroke="currentColor" stroke-linecap="round" d="M11 27.5h10m-5-18v18"/><path stroke="currentColor" stroke-linejoin="round" d="M29.411 13.895a4.502 4.502 0 0 1-8.822 0 .28.28 0 0 1 .077-.259A.46.46 0 0 1 21 13.5h8a.46.46 0 0 1 .334.136.28.28 0 0 1 .077.259Z"/><path fill="currentColor" d="m25 6 .453-.211a.5.5 0 0 0-.906 0L25 6Zm3.047 7.711a.5.5 0 1 0 .906-.422l-.906.422Zm-6.094 0 3.5-7.5-.906-.422-3.5 7.5.906.422Zm2.594-7.5 3.5 7.5.906-.422-3.5-7.5-.906.422Z"/><path stroke="currentColor" stroke-linejoin="round" d="M11.411 18.895a4.502 4.502 0 0 1-8.822 0 .28.28 0 0 1 .077-.259A.46.46 0 0 1 3 18.5h8a.46.46 0 0 1 .334.136.28.28 0 0 1 .077.259Z"/><path fill="currentColor" d="m7 11 .453-.211a.5.5 0 0 0-.906 0L7 11Zm3.047 7.711a.5.5 0 1 0 .906-.422l-.906.422Zm-6.094 0 3.5-7.5-.906-.422-3.5 7.5.906.422Zm2.594-7.5 3.5 7.5.906-.422-3.5-7.5-.906.422Z"/><circle cx="16" cy="8" r="1.5" stroke="currentColor"/><path stroke="currentColor" stroke-linecap="round" d="M17.933 7.728 29.08 4.741M3 11.73l11.553-3.096"/></svg>
